X:4
T:De jour en jour
R:Chanson
C:Tielman Susato
H:1544
N:compatible Abc2midi & Abcm2ps
N:vérifié le 23:42 06/ 02/ 02
A:Anvers
B:Premier livre des chansons
%O:Flandres
Z: Eric Forgeot - http://anamnese.online.fr
M:C|
L:1/4
Q:1/4=100
K:F
%%staves [1 | 2 | 3]
V:1 nm="S."
V:2 nm="A."
V:3 nm="Bar."
%%abc2pscompat
%%measurenb 0
%%staffsep 58pt
%%indent 50
V:1
%%MIDI channel 1
%%MIDI program 60       % General MIDI french horn
%%MIDI transpose 0
%%MIDI control 7 110 %volume
%%MIDI control 10 100 %pan
%%freegchord 1
"(Chantez a deux si bon vous semble, Puis chanterez tous troix ensemble.)"
z2 G2 | BBA>B | cdef-|
f e/ d/  c/ B/ c/ d/  | ed2^c | d2 zd | ddc>A | Bcd>c | BA/ G/  A/ B/ c/ B/  | A/ G/  G2 ^F | G4 | z2G2 |
BBA>B | cdef-| f e/ d/  c/ B/ c/ d/  | ed2^c | d2 zd | ddc>A | Bcd>c | BA/ G/  A/ B/ c/ B/  |
A/ G/  G2 ^F | G2 zG |: G2F2 | GGAA | B>c de-|e/ d/ d2 ^c | d4 | zddd |
f>edc | B>AGF | zddd | f>ed2-|dcBA/ G/  | FB2A | B4 | zddd |
c>ABc | d>cBB | A/  d/  d/  d/  c/  A/  B/  c/  |
d>cBA-|AG2^F |1 G2zG :|2 HG4 |]
V:2
%%MIDI channel 2
%%MIDI program 69       % General MIDI english horn
%%MIDI transpose 0
%%MIDI control 7 110 %volume
%%MIDI control 10 30 %pan
K:F treble
G,2 B,C | D>E F2-|F E/ D/  C D-| D/ E/ F/ G/  A3/2 G/4F/4 | G/ F/ E/ D/  E2 | DGGG | FDEF |
G F/ E/  D/ C/ B,/ A,/  | G,C3/2 D/ _E/ D/  | C/ B,/ A,/ G,/  A,2 | G,2 z2 | G,2 B,C |
D>E F2-|F E/ D/  C D-|D/ E/ F/ G/  A3/2 G/4F/4 | G/ F/ E/ D/  E2 |
DGGG | FDEF | G F/ E/  D/ C/ B,/ A,/  | G,C3/2 D/ _E/ D/  | C/ B,/ A,/ G,/  A,2 | G,G, B,2-|:B,CDD |EGFD-|
D/ C/ B,/ A,/ G, G-|G/ F/ E/ D/  E2 | DGGG | B>AGF/ E/  | 
D/ C/ D/ E/  F/ G/ A/ F/  | G>FED-|D/ C/ B,/ A,/ G, z/ D/  | DDG2 | 
F>E DC | D_EC2 | B,2 zG, | G,/ A,/ B,/ C/  D/ E/ F/ D/  |
EFGF/ E/  | DGGG | FDE/ F/  G-|GF/ E/ DC-|CB,A,2 |1 G,G,B,2-:|2 HG,4 |]
V:3
%%MIDI channel 3
%%MIDI program 70       % General MIDI bassoon
%%MIDI transpose -24
%%MIDI control 7 110 %volume
%%MIDI control 10 65 %pan
%%freegchord 1
%%clef=treble -8
"(Veulx tu chanter par bon advis, Attens que tu en soys requis.)"
K:F bass
g2gc | g>f d/ e/ f/ g/  | abad |
d' c'/ b/ af | c'd' a2 | zgg/ a/ b/ c'/  | d'baa |
gabg-|gf/ e/ fc | fgd2 | g2z2 | g2gc |
g>f d/ e/ f/ g/  | abad | d' c'/ b/ af | c'd'a2 |
zgg/ a/ b/ c'/  | d'baa | gabg-|gf/ e/ fc |
fgd2 | zgg2 |: _e2d2 | c2 ff | 
g>abg | b2 aa | bbg2 | zggg |
d'bba | g2cd | gz/ g/ bg | d'2zg |
bfga | b_ef2 | Bgg/ a/ b/  c'/  | d'gbb |
aaga | b z/ g/  g/ a/ b/  c'/  | d'bag |
g/ f/ g/ a/  bf-|fgd2 |1 zgg2 :|2 Hg4 |]
W:De jour en jour tu me fais consumer, Te gardant foy d'amour et loyaulté ;
W:Que pleust à dieu avoir esté sommé Alors que fuz surprins de ta beaulté, de ta beaulté ;
W:Je te supplye n'user de cruaulté, Mais me donner, Mais me donner de ton corps joyssance
W:Car aultrement n'auroye resjouyssance, (2x)
W:Je te supplye... etc.
%%MIDI transpose 0


%%newpage



